X:81
T:Cherokee Shuffle
C:Traditional - Arr. Butch Baldassari
N:From:Thirty Fiddle Tunes for Mandolin 
R:bluegrass
L:1/8
Q:1/4=215
M:4/4
K:C
|: "A"[e2A2A2] AA A2 AB | ^cB A2 [A2^F2] [A2E2] | z2 AB ^cd ea | "F#m"e^f fa f4 | 
"D"[^fA][aA] [aA][aA] [a2A2] [aA]f | "A"e^f ed [e^c][eB] [eA][eB] | "D"[e^c][eB] [eA][ec] "E"[eB][eA] ^GB | 
|1 A2 [A2A2] AA A2 :|2 A2 {^g}a2 g2 =g2 |: "D"^fe de f^g a2 | "A"e^f ed ^cB Ad | 
"D"^fe de f^g af | "A"e2 [e3e3]e e2 | "D"^fe de f^g af | "A"e^f ed ^cB AB | ^cB A2 c2 ec | 
"F#m"e^f fa f2 af | "D"e^f e^c "E"BA ^GB |1 A3[eA] [e2A2] a^g :|2 [e8A8] | 



